X:1
T:D minor                        Jacob Kimball, 1793
T:                               
T:Isaac Watts, 1709 (Hymn 95, Book 2)              86. 86. (C. M.)
T:Kingston
T:Transcribed from Kimball's Rural Harmony, 1793.
%%score [ 1 2 3 4 ]
L:1/8
Q:1/4=90
M:2/4
K:F
V:1 treble nm="Tr." snm="Tr."
V:2 treble nm="C." snm="C."
V:3 treble-8 nm="T." snm="T."
V:4 bass nm="B." snm="B."
V:1
 A2 AA | A3 A | A2 A2 | A3 A | A2 A2 | A2 A2 | A4 | A2 cc | A3 B | A2 A2 | A3 A | A2 G<B | A2 A2 | %13
w: 1.~In- fi- nite|grief! a-|ma- zing|woe! Be-|hold my|blee- ding|Lord!|Hell and the|Jews con-|spired his|death, And|used the *|Ro- man|
 A4 |: c2 cc | c2 c2 | c2 c2 | c3 c | A2 A2 | G>F E2 | E3 F | F2 EF | G3 B | A2 A2 | A3 A | %25
w: sword.|O, the sharp|pangs of|smar- ting|pain My|dear Re-|dee- * mer|bore, What|knot- ty *|whips and|rag- ged|thorns his|
 dA (3GAB | A2 A2 | A4 :| %28
w: sa- * cred * *|bo- dy|tore!|
V:2
 F2 FF | E3 F | D2 D2 | ^C3 C | D2 D2 | E>D ^C>D | D4 | F2 EE | C3 E | FE D2 | ^C3 C | D2 E2 | %12
w: 2.~But knot- ty|whips and|rag- ged|thorns In|vain do|I * ac- *|cuse;|In vain I|blame the|Ro- * man|bands, And|the more|
 F<D ^C2 | D4 |: F2 FF | F2 F2 | E2 E2 | E3 E | F2 F2 | E2 ED | ^C3 D | D2 D2 | E3 E | F2 F2 | %24
w: spite- * ful|Jews.|'Twere you, my|sins, my|cru- el|sins, His|chief tor-|men- tors *|were; Each|of my|crimes be-|came a|
 E3 F | F2 E2 | D2 ^C2 | D4 :| %28
w: nail, And|un- be-|lief the|sword.|
V:3
 d2 dd | ^c3 d | AG F2 | E3 E | FG Ad | ^c>d e>d | d4 | d2 AG | F3 G | AG F2 | E3 E | F<A B<G | %12
w: 3.~'Twere you that|pulled the|ven- * geance|down Up-|on * his *|guilt- * less *|head:|Break, break, my|heart! O|burst, * mine|eyes! And|let * my *|
 A<F E2 | D4 |: A2 AA | A2 G<F | E<F G<A | G3 G | A3 d | ^cB AG | A3 A | A<F GA | B3 G | A2 d2 | %24
w: sor- * rows|bleed.|Strike, migh- ty|grace, my *|flin- * ty *|soul, Till|mel- ting|wa- * ters *|flow, And|deep * re- *|pen- tance|drown my|
 ^c3 d | Ad (3BAG | F2 E2 | D4 :| %28
w: eyes in|un- * dis- * *|sem- bled|woe.|
V:4
 D,2 D,D, | A,3 D, | F,E, D,2 | A,,3 A,, | D,2 D,2 | A,2 A,,2 | D,4 | D,2 C,C, | F,3 E, | D,2 D,2 | %10
 A,,3 A,, | D,2 C,2 | D,2 A,,2 | D,4 |: F,2 F,F, | F,2 F,2 | C,2 C,2 | C,3 C, | %18
"^__________________________________________________________\nEdiited by B. C. Johnston, 2017.\n   1. Grace notes removed throughout. \n   2. Measure 20, Tenor: accidentals removed from second and fourth notes." F,2 D,2 | %19
 E,2 E,2 | A,,3 D, | D,2 G,F, | E,3 E, | D,2 D,2 | A,3 D, | D2 G,2 | A,2 A,,2 | D,4 :| %28

